X: 873
T: Alex Doig's
R: jig
M: 6/8
K: Gmajor
d2c|:B2g dcB|A3 e3|f2d cBA|GAB Adc|
B2g dcB|A3 e3|fed cBA|1 G3 Gdc:|2 G3GDC||
B,2G GFG|D2A FED|ABc cBA|GAB D2C|
B,2G GFG|D2A FED|FGA cBA|1 G3GDC:|2 G3G2||

